X: 221
T: I'll Gang nae mair to yon town
R: reel
M: C|
L: 1/8
Z: 2012 John Chambers <jc:trillian.mit.edu>
B: J. Anderson "Budget of Strathspeys, Reels and Country Dances" (Early 1800s) p.22 #1
F: http://imslp.org/wiki/Anderson%27s_Budget_of_Strathspeys,_Reels_and_Country_Dances_(Various)
K: G
(B/A/) | Gggd B2(Gc) | (Bd).G.d (BA).A.B | Gdgd B2(Gd) | BdAc BGG :|
d | (BG).d.G (eG).d.G | BGdG BAAd | (BG).d.G (eG).d.G | (Bd)(Ac) BGG ||
d | .B.G.d.G .e.G.d.G | BGdG BAAd | (gf)(gd) B2(Bc) | BdAc BGG |]

%%sep 2 1 500
%%sep 1 1 500

